X:8368
T:Kalkmans Vals
R:Waltz
O:Denmark
M:3/4
K:D
DF | A2A2 FA | d2d2 DF | A2A2 FA | d2d2 Ad |\
dc cB BA | AG GF FE | Dd cd ec | d4 :|*
|:f2 | e3d ef | g2f2 e2 | f3e fg | a2g2 f2 | \
e3d ef | g2f2 e2 | df af ge | e2 d4 :|**
